goods.client/src/assets/icons/services/marketingActivities.svg

<svg width="50" height="50" viewBox="0 0 50 50" fill="none" xmlns="http://www.w3.org/2000/svg">
<g id="marketing-speaker-svgrepo-com 1" clip-path="url(#clip0_46_625)">
<path id="Vector" d="M7.4635 27.5051L11.299 41.3132C11.4999 42.036 12.158 42.5363 12.9082 42.5363H17.4843L13.5333 28.3132L7.4635 27.5051Z" fill="#32965D"/>
<path id="Vector_2" d="M2.45301 17.4843C1.53065 17.4843 0.782898 18.2319 0.782898 19.1544V24.1648C0.782898 25.0872 1.53075 25.8349 2.45301 25.8349H4.95819V17.4843H2.45301Z" fill="#32965D"/>
<path id="Vector_3" d="M35.0209 7.46338H32.5156C31.5933 7.46338 30.8455 8.21103 30.8455 9.1335V9.5248C28.0269 10.8073 18.3434 14.9023 6.42716 16.4708C5.59034 16.581 4.95831 17.2835 4.95831 18.1275V25.1915C4.95831 26.0355 5.59044 26.7381 6.42716 26.8482C18.3434 28.4167 28.0269 32.5118 30.8455 33.7942V34.1855C30.8455 35.1079 31.5934 35.8557 32.5156 35.8557H35.0208C35.9432 35.8557 36.6909 35.1078 36.6909 34.1855V9.13359C36.691 8.21103 35.9433 7.46338 35.0209 7.46338Z" fill="#276041"/>
<path id="Vector_4" d="M28.3403 22.9177C28.3403 23.935 27.4429 24.7158 26.4358 24.5712C22.1074 23.9497 15.1868 23.0627 6.42716 22.6557C5.59034 22.6168 4.95831 22.3689 4.95831 22.071V25.1914C4.95831 26.0351 5.58966 26.7379 6.42618 26.8479C16.6143 28.1887 25.1508 31.3698 29.1781 33.0673C29.2803 33.1102 30.6015 33.6831 30.8457 33.7942V9.52478C30.2792 9.7825 29.4239 10.1572 28.3405 10.5988V22.9177L28.3403 22.9177Z" fill="#276041"/>
<path id="Vector_5" d="M11.5742 31.7778C11.4242 31.1414 11.987 30.567 12.6278 30.6973C13.1954 30.8128 13.747 30.9363 14.2965 31.0605L13.5333 28.3134L7.46338 27.5052L11.2989 41.3134C11.4998 42.0362 12.1579 42.5365 12.9081 42.5365H14.1418L11.5742 31.7778Z" fill="#32965D"/>
<path id="Vector_6" d="M35.0209 6.68048H32.5156C31.3364 6.68048 30.3492 7.51691 30.1153 8.62755C28.1921 9.58976 18.7535 14.0588 6.3249 15.6946C5.62695 15.7865 5.02764 16.1658 4.64014 16.7013H2.45303C1.10039 16.7014 0 17.8018 0 19.1544V24.1649C0 25.5175 1.10039 26.6179 2.45303 26.6179H4.64033C5.02773 27.1533 5.62715 27.5327 6.325 27.6245C6.4499 27.641 6.57393 27.6583 6.69834 27.6754L10.5448 41.5229C10.8387 42.5806 11.8105 43.3193 12.9084 43.3193H17.4815C17.4824 43.3193 17.4832 43.3195 17.4841 43.3195C17.4852 43.3195 17.486 43.3193 17.4871 43.3193H18.3195C18.7519 43.3193 19.1024 42.9689 19.1024 42.5364C19.1024 42.1041 18.752 41.7535 18.3195 41.7535H18.0796L14.5863 29.1784C22.8 31.1799 28.6473 33.9571 30.1154 34.6916C30.3492 35.8023 31.3365 36.6387 32.5157 36.6387H35.0209C36.3735 36.6387 37.4739 35.5383 37.4739 34.1857V9.13351C37.4739 7.78087 36.3735 6.68048 35.0209 6.68048ZM1.56572 24.1649V19.1544C1.56572 18.6651 1.96377 18.2671 2.45303 18.2671H4.17539V25.0521H2.45303C1.96377 25.0521 1.56572 24.6541 1.56572 24.1649ZM16.4544 41.7535H12.9084C12.5113 41.7535 12.1599 41.4863 12.0536 41.1037L8.39307 27.9269C9.93447 28.1737 11.4229 28.4611 12.8492 28.7755L16.4544 41.7535ZM35.9081 34.1858C35.9081 34.675 35.5101 35.0731 35.0208 35.0731H32.5156C32.0264 35.0731 31.6283 34.675 31.6283 34.1858V34.1848C31.6283 34.183 31.6283 34.1813 31.6283 34.1794V15.8144C31.6283 15.382 31.2778 15.0315 30.8454 15.0315C30.4131 15.0315 30.0625 15.3819 30.0625 15.8144V32.9253C26.9802 31.4616 17.9944 27.5812 6.5292 26.0721C6.07979 26.013 5.74102 25.6344 5.74102 25.1915V18.1276C5.74102 17.6847 6.07988 17.3062 6.5292 17.247C17.9944 15.738 26.9802 11.8574 30.0625 10.3939V12.474C30.0625 12.9064 30.413 13.2569 30.8454 13.2569C31.2777 13.2569 31.6283 12.9065 31.6283 12.474V9.13898C31.6283 9.138 31.6283 9.13702 31.6283 9.13605V9.13351C31.6283 8.64425 32.0264 8.2462 32.5156 8.2462H35.0208C35.5101 8.2462 35.9081 8.64425 35.9081 9.13351V34.1858Z" fill="black"/>
<path id="Vector_7" d="M49.2171 20.8768H40.8664C40.4341 20.8768 40.0835 21.2273 40.0835 21.6597C40.0835 22.0921 40.434 22.4426 40.8664 22.4426H49.2171C49.6494 22.4426 50 22.0921 50 21.6597C50 21.2273 49.6495 20.8768 49.2171 20.8768Z" fill="black"/>
<path id="Vector_8" d="M45.8771 14.4499C45.98 14.4499 46.0846 14.4294 46.1851 14.3864L47.0202 14.0285C47.4176 13.8582 47.6018 13.3979 47.4314 13.0006C47.261 12.6031 46.8008 12.4191 46.4034 12.5895L45.5683 12.9474C45.1709 13.1177 44.9867 13.5779 45.1571 13.9753C45.2844 14.2722 45.5733 14.4499 45.8771 14.4499Z" fill="black"/>
<path id="Vector_9" d="M40.8667 16.5972C40.9696 16.5972 41.0742 16.5767 41.1747 16.5337L43.6799 15.46C44.0773 15.2896 44.2614 14.8294 44.091 14.432C43.9207 14.0347 43.4605 13.8506 43.0631 14.0209L40.5579 15.0946C40.1606 15.2649 39.9764 15.7252 40.1468 16.1226C40.274 16.4193 40.5631 16.5972 40.8667 16.5972Z" fill="black"/>
<path id="Vector_10" d="M47.0202 29.2907L46.1827 28.9318C45.7853 28.7613 45.3251 28.9456 45.1548 29.3429C44.9845 29.7403 45.1685 30.2006 45.5659 30.3709L46.4034 30.7298C46.5039 30.7728 46.6085 30.7932 46.7114 30.7932C47.0151 30.7932 47.3041 30.6154 47.4313 30.3185C47.6017 29.9213 47.4178 29.461 47.0202 29.2907Z" fill="black"/>
<path id="Vector_11" d="M43.6788 27.8587L41.1748 26.7856C40.7774 26.6153 40.3171 26.7993 40.1469 27.1967C39.9766 27.5942 40.1606 28.0543 40.558 28.2246L43.062 29.2978C43.1625 29.3408 43.2671 29.3612 43.37 29.3612C43.6737 29.3612 43.9627 29.1834 44.0899 28.8866C44.2603 28.4893 44.0762 28.029 43.6788 27.8587Z" fill="black"/>
</g>
<defs>
<clipPath id="clip0_46_625">
<rect width="50" height="50" fill="white"/>
</clipPath>
</defs>
</svg>

<svg xmlns="http://www.w3.org/2000/svg" width="50" height="50" fill="none"><g clip-path="url(#a)"><path fill="#6B7280" d="m7.464 27.505 3.835 13.808a1.67 1.67 0 0 0 1.61 1.223h4.575l-3.95-14.223zM2.453 17.484a1.67 1.67 0 0 0-1.67 1.67v5.01c0 .923.748 1.67 1.67 1.67h2.505v-8.35z"/><path fill="#231F20" d="M35.02 7.463h-2.504a1.67 1.67 0 0 0-1.67 1.67v.392c-2.82 1.282-12.503 5.377-24.419 6.946a1.68 1.68 0 0 0-1.469 1.657v7.064c0 .843.632 1.546 1.47 1.656 11.915 1.569 21.599 5.664 24.418 6.946v.392c0 .922.747 1.67 1.67 1.67h2.505a1.67 1.67 0 0 0 1.67-1.67V9.133a1.67 1.67 0 0 0-1.67-1.67"/><path fill="#231F20" d="M28.34 22.918a1.667 1.667 0 0 1-1.904 1.653 206 206 0 0 0-20.009-1.915c-.837-.04-1.469-.287-1.469-.585v3.12c0 .844.632 1.547 1.468 1.657 10.188 1.34 18.725 4.522 22.752 6.22.102.042 1.424.615 1.668.726V9.524c-.567.259-1.422.633-2.506 1.075z"/><path fill="#6B7280" d="M11.574 31.778a.896.896 0 0 1 1.054-1.08c.567.115 1.119.238 1.668.363l-.763-2.748-6.07-.808L11.3 41.313a1.67 1.67 0 0 0 1.61 1.223h1.233z"/><path fill="#000" d="M35.02 6.68h-2.504c-1.18 0-2.167.837-2.4 1.948-1.924.962-11.362 5.43-23.791 7.067A2.48 2.48 0 0 0 4.64 16.7H2.453A2.456 2.456 0 0 0 0 19.154v5.01c0 1.353 1.1 2.454 2.453 2.454H4.64c.388.535.987.915 1.685 1.007l.373.05 3.847 13.848a2.46 2.46 0 0 0 2.363 1.796h5.412a.783.783 0 1 0 0-1.565h-.24l-3.494-12.576c8.214 2.002 14.061 4.78 15.53 5.514a2.46 2.46 0 0 0 2.4 1.947h2.505c1.352 0 2.453-1.1 2.453-2.453V9.134c0-1.353-1.1-2.454-2.453-2.454M1.567 24.165v-5.01c0-.49.398-.888.887-.888h1.722v6.785H2.453a.89.89 0 0 1-.887-.887m14.888 17.589h-3.546a.89.89 0 0 1-.854-.65l-3.66-13.177c1.54.247 3.029.534 4.455.849zm19.454-7.568c0 .489-.398.887-.887.887h-2.505a.89.89 0 0 1-.888-.887V15.814a.783.783 0 1 0-1.565 0v17.111c-3.083-1.463-12.069-5.344-23.534-6.853a.9.9 0 0 1-.788-.88v-7.064c0-.443.339-.822.788-.881 11.465-1.509 20.451-5.39 23.534-6.853v2.08a.783.783 0 1 0 1.565 0v-3.34c0-.49.398-.888.888-.888h2.505c.49 0 .887.398.887.888zM49.217 20.877h-8.35a.783.783 0 0 0 0 1.566h8.35a.783.783 0 0 0 0-1.566M45.877 14.45q.156.001.308-.064l.835-.357a.783.783 0 1 0-.617-1.44l-.835.358a.783.783 0 0 0 .31 1.503M40.867 16.597q.156 0 .308-.063l2.505-1.074a.783.783 0 0 0-.617-1.44l-2.505 1.075a.783.783 0 0 0 .309 1.502M47.02 29.29l-.837-.358a.783.783 0 1 0-.617 1.439l.837.359a.78.78 0 0 0 1.028-.412.78.78 0 0 0-.41-1.027M43.679 27.859l-2.504-1.073a.783.783 0 1 0-.617 1.439l2.504 1.073a.78.78 0 0 0 1.028-.411.783.783 0 0 0-.411-1.028"/></g><defs><clipPath id="a"><path fill="#fff" d="M0 0h50v50H0z"/></clipPath></defs></svg>
